X: 88
T:Pasacorredoiras de Fonsagrada
M:2/4
L:1/16
Q:100
C:Trad.
S:Rep. Emilio Pérez
R:Pasacorredoiras
K:C
CD | EFED C"F."GCD | EFED C"F."GCD | EFGA G2FE | D4- D2B,C DEDC |
B,"F."GB,C DEDC | B,"F."GB,C DEFG | F2ED C4- |1 C"F."G :|2 |: C2"F."G2 C
2D2 | E2CD E4-| E2C2 D2E2|
F2D2 E2F2- | F2 DE FAGF | E2CD EGFE | D2B,C DEDB,| C8- :|C"F."G

